resources/svg/ebay.svg

<svg xmlns="http://www.w3.org/2000/svg" viewBox="0 0 60 24" fill="currentColor"><g fill="none" fill-rule="evenodd"><path fill="currentColor" fill-rule="nonzero" d="M7.7732896,5.21819068 C3.5441438,5.21819068 0.019999394,6.99757845 0.019999394,12.3659101 C0.019999394,16.6188107 2.3897314,19.297032 7.8824908,19.297032 C14.3477258,19.297032 14.7621708,15.0733795 14.7621708,15.0733795 L11.6294594,15.0733795 C11.6294594,15.0733795 10.9577798,17.347654 7.6913886,17.347654 C5.0310022,17.347654 3.117548,15.5653377 3.117548,13.067162 L15.0897746,13.067162 L15.0897746,11.4995199 C15.0897746,9.02803874 13.5077606,5.21819068 7.7732896,5.21819068 L7.7732896,5.21819068 Z M7.6640882,7.22171802 C10.1965006,7.22171802 11.9229378,8.76030585 11.9229378,11.0663246 L3.1868362,11.0663246 C3.1868362,8.61820364 5.4402766,7.22171802 7.6640882,7.22171802 L7.6640882,7.22171802 Z"/><path fill="currentColor" fill-rule="nonzero" d="M15.0875524,0.0198491484 L15.0875524,16.6010769 C15.0875524,17.5422799 15.019817,18.863837 15.019817,18.863837 L18.0077636,18.863837 C18.0077636,18.863837 18.1150112,17.914676 18.1150112,17.0472353 C18.1150112,17.0472353 19.5912498,19.337644 23.605252,19.337644 C27.832158,19.337644 30.703334,16.4272941 30.703334,12.2576112 C30.703334,8.3786154 28.066066,5.25880264 23.612076,5.25880264 C19.441229,5.25880264 18.145188,7.49246499 18.145188,7.49246499 L18.145188,0.0198491484 L15.0875524,0.0198491484 Z M22.840842,7.30971074 C25.71124,7.30971074 27.536498,9.42243689 27.536498,12.2576112 C27.536498,15.2978212 25.428386,17.2867359 22.861318,17.2867359 C19.7977472,17.2867359 18.145188,14.9144815 18.145188,12.284686 C18.145188,9.83422909 19.6280778,7.30971074 22.840842,7.30971074 Z"/><path fill="currentColor" fill-rule="nonzero" d="M38.12902,5.21819068 C31.76659,5.21819068 31.358542,8.67315451 31.358542,9.22524555 L34.525378,9.22524555 C34.525378,9.22524555 34.691446,7.20818063 37.910618,7.20818063 C40.002488,7.20818063 41.623462,8.15774975 41.623462,9.98333693 L41.623462,10.6331296 L37.910618,10.6331296 C32.981554,10.6331296 30.37573,12.0631587 30.37573,14.9650808 C30.37573,17.820989 32.783428,19.3748717 36.037134,19.3748717 C40.47143,19.3748717 41.899876,16.944918 41.899876,16.944918 C41.899876,17.9114206 41.975012,18.863837 41.975012,18.863837 L44.790298,18.863837 C44.790298,18.863837 44.681096,17.6832871 44.681096,16.9279962 L44.681096,10.3996104 C44.681096,6.11903722 41.199594,5.21819068 38.12902,5.21819068 L38.12902,5.21819068 Z M41.623462,12.5825076 L41.623462,13.4488979 C41.623462,14.5789069 40.920356,17.388266 36.781068,17.388266 C34.514408,17.388266 33.542568,16.2663838 33.542568,14.9650808 C33.542568,12.5977539 36.815324,12.5825076 41.623462,12.5825076 L41.623462,12.5825076 Z"/><polygon fill="currentColor" fill-rule="nonzero" points="42.976 5.76 46.538 5.76 51.651 15.919 56.753 5.76 59.98 5.76 50.688 23.846 47.303 23.846 49.984 18.804"/></g></svg>

<svg viewBox="0 0 24 24"><g fill="none" fill-rule="nonzero"><path fill="#E53238" d="M7.773 5.218C3.544 5.218.02 6.998.02 12.366c0 4.253 2.37 6.931 7.862 6.931c6.466 0 6.88-4.224 6.88-4.224H11.63s-.671 2.275-3.938 2.275c-2.66 0-4.573-1.783-4.573-4.28H15.09V11.5c0-2.472-1.582-6.282-7.317-6.282zm-.109 2.004c2.533 0 4.259 1.538 4.259 3.844H3.187c0-2.448 2.253-3.844 4.477-3.844z"/><path fill="#0064D2" d="M15.088.02V16.6c0 .941-.068 2.263-.068 2.263h2.988s.107-.95.107-1.817c0 0 1.476 2.29 5.49 2.29c4.227 0 7.098-2.91 7.098-7.08c0-3.878-2.637-6.998-7.09-6.998c-4.172 0-5.468 2.233-5.468 2.233V.02h-3.057zm7.753 7.29c2.87 0 4.695 2.112 4.695 4.948c0 3.04-2.108 5.029-4.675 5.029c-3.063 0-4.716-2.373-4.716-5.002c0-2.45 1.483-4.975 4.696-4.975z"/><path fill="#F5AF02" d="M38.129 5.218c-6.362 0-6.77 3.455-6.77 4.007h3.166s.166-2.017 3.386-2.017c2.091 0 3.712.95 3.712 2.775v.65h-3.712c-4.93 0-7.535 1.43-7.535 4.332c0 2.856 2.407 4.41 5.661 4.41c4.434 0 5.863-2.43 5.863-2.43c0 .966.075 1.919.075 1.919h2.815s-.109-1.18-.109-1.936V10.4c0-4.281-3.481-5.182-6.552-5.182zm3.494 7.365v.866c0 1.13-.703 3.94-4.842 3.94c-2.267 0-3.238-1.123-3.238-2.424c0-2.367 3.272-2.382 8.08-2.382z"/><path fill="#86B817" d="M42.976 5.76h3.562l5.113 10.159L56.753 5.76h3.227l-9.292 18.086h-3.385l2.681-5.042z"/></g></svg>
